src/svg/copy.svg

<svg height="35" viewBox="0 0 35 35" width="35" xmlns="http://www.w3.org/2000/svg" xmlns:xlink="http://www.w3.org/1999/xlink"><linearGradient id="a" x1="50%" x2="50%" y1="0%" y2="100%"><stop offset="0" stop-color="#5bd230"/><stop offset="1" stop-color="#068b03"/></linearGradient><g fill="none" fill-rule="evenodd"><path d="m9 24c0 4.97 4.03 9 9 9 4.97 0 9-4.03 9-9 0-4.971-4.03-9-9-9-4.97 0-9 4.029-9 9" fill="url(#a)"/><path d="m8 17.4219v-16.015l11.591 11.619h-7.041l-.151.124z" fill="#fff"/><path d="m22 23h-3v-3c0-.552-.448-1-1-1s-1 .448-1 1v3h-3c-.552 0-1 .448-1 1s.448 1 1 1h3v3c0 .552.448 1 1 1s1-.448 1-1v-3h3c.552 0 1-.448 1-1s-.448-1-1-1" fill="#fff"/><path d="m9 3.814v11.188l2.969-2.866.16-.139h5.036z" fill="#000"/></g></svg>

<?xml version="1.0" encoding="UTF-8" standalone="no"?>
<svg width="35px" height="35px" viewBox="0 0 35 35" version="1.1" xmlns="http://www.w3.org/2000/svg" xmlns:xlink="http://www.w3.org/1999/xlink">
    <defs>
        <linearGradient x1="50%" y1="0%" x2="50%" y2="100%" id="linearGradient-copy">
            <stop stop-color="#5BD230" offset="0%"></stop>
            <stop stop-color="#068B03" offset="100%"></stop>
        </linearGradient>
    </defs>
    <g id="Page-1" stroke="none" stroke-width="1" fill="none" fill-rule="evenodd">
        <g id="copy">
            <g id="bg-copy" fill="#FFFFFF" opacity="0.00999999978">
                <rect id="bg" x="0" y="0" width="35" height="35"></rect>
            </g>
            <path d="M9,24 C9,28.97 13.03,33 18,33 L18,33 C22.97,33 27,28.97 27,24 L27,24 C27,19.029 22.97,15 18,15 L18,15 C13.03,15 9,19.029 9,24" id="copy-circle" fill="url(#linearGradient-copy)"></path>
            <path d="M8,17.4219 L8,1.4069 L19.591,13.0259 L12.55,13.0259 L12.399,13.1499 L8,17.4219 Z" id="point-border" fill="#FFFFFF"></path>
            <path d="M22,23 L19,23 L19,20 C19,19.448 18.552,19 18,19 C17.448,19 17,19.448 17,20 L17,23 L14,23 C13.448,23 13,23.448 13,24 C13,24.552 13.448,25 14,25 L17,25 L17,28 C17,28.552 17.448,29 18,29 C18.552,29 19,28.552 19,28 L19,25 L22,25 C22.552,25 23,24.552 23,24 C23,23.448 22.552,23 22,23" id="plus" fill="#FFFFFF"></path>
            <path d="M9,3.814 L9,15.002 L11.969,12.136 L12.129,11.997 L17.165,11.997 L9,3.814 Z" id="point" fill="#000000"></path>
        </g>
    </g>
</svg>
